svg/Pictogram/pictograms-aem-0051-do_not_operate_on_slope.svg

<svg viewBox="0 0 331.49 331.13"><g transform="matrix(1.35328 0 0 1.35328-53.21-52.19)"><g fill-rule="evenodd"><g fill="#fff"><path d="m172.63 152.07c4.511-1.488 6.964-6.351 5.476-10.863l-11.785-35.59c-1.488-4.512-6.351-6.961-10.863-5.476l-10.891 3.593c-4.515 1.485-6.965 6.348-5.48 10.86l11.789 35.59c1.484 4.511 6.351 6.964 10.863 5.476l10.891-3.594"/><path d="m152.19 117.61c2.082-4.273.305-9.422-3.968-11.5-4.27-2.078-9.418-.301-11.5 3.969l-12.551 25.781c-2.078 4.27-.301 9.418 3.968 11.496 4.274 2.082 9.422.305 11.5-3.969l12.551-25.777"/></g><path d="m137.06 142.14l12.551-25.782c1.387-2.843.199-6.277-2.644-7.664-2.848-1.387-6.282-.203-7.668 2.645l-12.551 25.781c-1.383 2.848-.199 6.277 2.648 7.668 2.848 1.387 6.278.199 7.664-2.648"/><path d="m157.19 114.11c-4.234-2.144-5.933-7.32-3.789-11.558 2.145-4.239 7.32-5.938 11.559-3.793l25.582 12.945c4.242 2.145 5.937 7.32 3.793 11.559-2.145 4.238-7.321 5.937-11.559 3.793l-25.586-12.946" fill="#fff"/><path d="m184.07 124.5l-25.586-12.949c-2.824-1.43-3.957-4.879-2.527-7.703 1.429-2.829 4.879-3.957 7.707-2.532l25.586 12.95c2.824 1.429 3.957 4.878 2.527 7.703-1.43 2.828-4.883 3.957-7.707 2.531"/><path d="m220.59 196.73c-1.531.696-3.347-.004-4.046-1.535l-17.246-38.02c-.7-1.531-.02-3.339 1.515-4.04l18.449-8.379c1.536-.695 3.317-.003 4.01 1.532l17.297 37.992c.695 1.531-.004 3.348-1.535 4.047l-18.446 8.394"/><g fill="#fff"><path d="m236.67 186.03c.746-.344 1.074-1.223.738-1.969l-16.09-35.394c-.34-.75-1.219-1.078-1.969-.739l-16.312 7.414c-.746.336-1.078 1.219-.739 1.965l16.08 35.399c.34.746 1.223 1.074 1.969.734l16.317-7.41"/><path d="m236.67 186.03c.75-.344 1.078-1.223.738-1.969l-16.08-35.394c-.34-.746-1.223-1.078-1.969-.739l-16.316 7.414c-.746.336-1.074 1.219-.735 1.965l16.08 35.399c.34.746 1.219 1.074 1.965.734l16.317-7.41"/></g><path d="m151.96 227.7c-1.535.695-3.352-.004-4.051-1.535l-17.246-38.02c-.699-1.535-.02-3.344 1.515-4.04l18.45-8.379c1.535-.695 3.316-.004 4.01 1.528l17.297 37.996c.696 1.531-.004 3.347-1.539 4.047l-18.437 8.398"/><path d="m167.93 217.23c.746-.34 1.078-1.219.738-1.969l-16.08-35.394c-.34-.746-1.223-1.078-1.969-.738l-15.809 7.129c-.746.339-1.078 1.218-.738 1.964l16.09 35.454c.34.75 1.223 1.078 1.969.738l15.804-7.184" fill="#fff"/><path d="m163.78 203.36l-5.297-11.57 7.06-3.289-11.141-24.01 35.02-16.215 11.207 24.469 7.179-3.25 4.86 11.09-48.883 22.769"/><path d="m206.71 173.35l2.625 5.352-44.59 20.633-2.942-6.02 7.532-3.476-10.969-23.895 29.613-13.805 11.281 24.547 7.45-3.34" fill="#fff"/><path d="m81.26 246.01c22.704-.101 50.977-5.82 62.26-11.769l112.09-51.856-.004 4.03-115.94 53.07c-13.934 6.109-37.895 9.59-58.33 9.824l-.075-3.297"/><path d="m157.54 152.67l-1.09-2.266-2.578 1.227 1.094 2.265 2.574-1.226"/><path d="m146.44 104.45c7.109-.473 12.488-6.621 12.02-13.734-.477-7.11-6.625-12.489-13.735-12.02-7.109.477-12.492 6.625-12.01 13.734.472 7.11 6.621 12.489 13.734 12.02" fill="#fff"/><path d="m146.25 101.6c5.531-.371 9.715-5.152 9.343-10.683-.367-5.527-5.152-9.711-10.679-9.344-5.532.367-9.715 5.152-9.348 10.68.371 5.531 5.152 9.715 10.684 9.347"/><path d="m180.35 142.08l-1.094-2.262-2.574 1.223 1.09 2.265 2.578-1.226"/><path d="m171.73 149.34c3.01-.993 4.645-4.235 3.653-7.243l-11.786-35.589c-.992-3.01-4.234-4.641-7.3-4.344l-12.06 4.371c-2.949 1.687-3.422 4.148-2.43 7.156l11.785 35.586c.993 3.01 4.235 4.645 7.243 3.652l10.89-3.589"/><path d="m150.78 153.04l32.17-14.887 1.832-6.594-12.883-21.324c-1.707-2.293-4.461-1.57-6.472-.641l-25.547 11.825c-2.01.929-4.03 3.136-3.453 5.312l7.73 23.485 6.621 2.824"/><path d="m151 149.46l29.23-13.563 1.043-4.199-10.527-17.805c-1.465-1.98-2.27-2.648-5.773-.73l-22.704 10.301c-2.808.933-3.269 2.527-2.48 4.828l6.734 19.469 4.481 1.699" fill="#fff"/><path d="m155.68 167.18l34.883-16.219 6.18.707 21.488-9.879-8.394-9.762c-2.039-1.73-4.485-1.398-7.286-.14l-69.13 31.992c-3.03 1.898-4.36 3.519-4.446 6.289l1.969 12.01c0 0 21.727-10.34 21.844-10.395.117-.055 2.894-4.605 2.894-4.605"/><path d="m189.42 148.28l-35.05 16.195-3.363 4.895-18.328 8.605c0 0-1.067-7.05-1.012-6.937-.188-2.059.887-3.82 4.539-5.625l68.26-31.621c2.113-.723 3.218-.473 4.945 1.765l4.375 5.243-17.477 7.843-6.89-.363" fill="#fff"/><path d="m74.72 74.72l182.05 181.69" fill="#ccc"/></g><g fill="none"><g stroke="#f00" stroke-width="14.257"><path d="m74.72 74.72l182.05 181.69"/><path d="m74.816 256.26l181.33-181.06"/></g><g stroke="#000" stroke-width=".5"><path d="m43.36 278.95h-27"/><path d="m43.36 52.18h-27"/><path d="m52.36 43.18v-27"/><path d="m279.13 43.18v-27"/></g></g></g></svg>

<?xml version="1.0" encoding="ISO-8859-1" standalone="yes"?>
<svg height="331.128" width="331.491">
  <metadata>
    <rdf:RDF xmlns:cc="http://web.resource.org/cc/" xmlns:dc="http://purl.org/dc/elements/1.1/" xmlns:rdf="http://www.w3.org/1999/02/22-rdf-syntax-ns#">
      <cc:Work rdf:about="">
        <dc:title></dc:title>
        <dc:description></dc:description>
        <dc:subject>
          <rdf:Bag>
            <rdf:li></rdf:li>
          </rdf:Bag>
        </dc:subject>
        <dc:publisher>
          <cc:Agent rdf:about="http://www.unece.org/trans/danger/publi/ghs/pictograms.html">
            <dc:title>Source: UNECE GHS of Classification and Labeling of Chemicals, Source: AEM Pictorial Database, Source: AEM Pictorial Database, Source: AEM Pictorial Database, Source: AEM Pictorial Database</dc:title>
          </cc:Agent>
        </dc:publisher>
        <dc:creator>
          <cc:Agent>
            <dc:title></dc:title>
          </cc:Agent>
        </dc:creator>
        <dc:rights>
          <cc:Agent>
            <dc:title></dc:title>
          </cc:Agent>
        </dc:rights>
        <dc:date></dc:date>
        <dc:format>image/svg+xml</dc:format>
        <dc:type rdf:resource="http://purl.org/dc/dcmitype/StillImage"/>
        <cc:license rdf:resource="http://en.wikipedia.org/wiki/Public_domain"/>
        <dc:language>en</dc:language>
      </cc:Work>
    </rdf:RDF>
  </metadata>
  <defs><marker id="ArrowEnd" markerHeight="3" markerUnits="strokeWidth" markerWidth="4" orient="auto" refX="0" refY="5" viewBox="0 0 10 10"><path d="M 0 0 L 10 5 L 0 10 z"/></marker><marker id="ArrowStart" markerHeight="3" markerUnits="strokeWidth" markerWidth="4" orient="auto" refX="10" refY="5" viewBox="0 0 10 10"><path d="M 10 0 L 0 5 L 10 10 z"/></marker> </defs>
  <g id="g2958" transform="matrix(1.3532768,0,0,1.3532781,-53.207834,-52.192858)">
    <path d="M 172.629 152.066C 177.14 150.578 179.593 145.715 178.105 141.203L 166.32 105.613C 164.832 101.101 159.969 98.6517 155.457 100.137L 144.566 103.73C 140.051 105.215 137.601 110.078 139.086 114.59L 150.875 150.18C 152.359 154.691 157.226 157.144 161.738 155.656L 172.629 152.062" style="stroke:none; fill-rule:evenodd; fill:#ffffff"/>
    <path d="M 152.187 117.613C 154.269 113.34 152.492 108.191 148.219 106.113C 143.949 104.035 138.801 105.812 136.719 110.082L 124.168 135.863C 122.09 140.133 123.867 145.281 128.136 147.359C 132.41 149.441 137.558 147.664 139.636 143.39L 152.187 117.613" style="stroke:none; fill-rule:evenodd; fill:#ffffff"/>
    <path d="M 137.062 142.137L 149.613 116.355C 151 113.512 149.812 110.078 146.969 108.691C 144.121 107.304 140.687 108.488 139.301 111.336L 126.75 137.117C 125.367 139.965 126.551 143.394 129.398 144.785C 132.246 146.172 135.676 144.984 137.062 142.137" style="stroke:none; fill-rule:evenodd; fill:#000000"/>
    <path d="M 157.191 114.105C 152.957 111.961 151.258 106.785 153.402 102.547C 155.547 98.3077 160.722 96.6087 164.961 98.7537L 190.543 111.699C 194.785 113.844 196.48 119.019 194.336 123.258C 192.191 127.496 187.015 129.195 182.777 127.051L 157.191 114.105" style="stroke:none; fill-rule:evenodd; fill:#ffffff"/>
    <path d="M 184.07 124.496L 158.484 111.547C 155.66 110.117 154.527 106.668 155.957 103.844C 157.386 101.015 160.836 99.8867 163.664 101.312L 189.25 114.262C 192.074 115.691 193.207 119.14 191.777 121.965C 190.347 124.793 186.894 125.922 184.07 124.496" style="stroke:none; fill-rule:evenodd; fill:#000000"/>
    <path d="M 220.593 196.734C 219.062 197.43 217.246 196.73 216.547 195.199L 199.301 157.183C 198.601 155.652 199.281 153.844 200.816 153.144L 219.265 144.765C 220.801 144.07 222.582 144.762 223.277 146.297L 240.574 184.289C 241.269 185.82 240.57 187.637 239.039 188.336L 220.593 196.73" style="stroke:none; fill-rule:evenodd; fill:#000000"/>
    <path d="M 236.672 186.035C 237.418 185.691 237.746 184.812 237.41 184.066L 221.324 148.672C 220.984 147.922 220.105 147.594 219.355 147.933L 203.043 155.347C 202.297 155.683 201.965 156.566 202.304 157.312L 218.386 192.711C 218.726 193.457 219.609 193.785 220.355 193.445L 236.672 186.035" style="stroke:none; fill-rule:evenodd; fill:#ffffff"/>
    <path d="M 236.672 186.035C 237.422 185.691 237.75 184.812 237.41 184.066L 221.328 148.672C 220.988 147.926 220.105 147.594 219.359 147.933L 203.043 155.347C 202.297 155.683 201.969 156.566 202.308 157.312L 218.39 192.711C 218.73 193.457 219.609 193.785 220.355 193.445L 236.672 186.035" style="stroke:none; fill-rule:evenodd; fill:#ffffff"/>
    <path d="M 151.961 227.699C 150.426 228.394 148.609 227.695 147.91 226.164L 130.664 188.148C 129.965 186.613 130.644 184.804 132.179 184.109L 150.629 175.73C 152.164 175.035 153.945 175.726 154.64 177.258L 171.937 215.254C 172.633 216.785 171.933 218.601 170.398 219.301L 151.961 227.699" style="stroke:none; fill-rule:evenodd; fill:#000000"/>
    <path d="M 167.926 217.234C 168.672 216.894 169.004 216.015 168.664 215.265L 152.582 179.871C 152.242 179.125 151.359 178.793 150.613 179.133L 134.804 186.262C 134.058 186.601 133.726 187.48 134.066 188.226L 150.156 223.68C 150.496 224.43 151.379 224.758 152.125 224.418L 167.929 217.234" style="stroke:none; fill-rule:evenodd; fill:#ffffff"/>
    <path d="M 163.781 203.359L 158.484 191.789L 165.543 188.5L 154.402 164.492L 189.418 148.277L 200.625 172.746L 207.804 169.496L 212.664 180.59L 163.781 203.359" style="stroke:none; fill-rule:evenodd; fill:#000000"/>
    <path d="M 206.711 173.347L 209.336 178.699L 164.746 199.332L 161.804 193.316L 169.336 189.84L 158.367 165.945L 187.98 152.14L 199.261 176.687L 206.711 173.347" style="stroke:none; fill-rule:evenodd; fill:#ffffff"/>
    <path d="M 81.2647 246.015C 103.969 245.914 132.242 240.195 143.527 234.246L 255.617 182.39L 255.613 186.418L 139.668 239.488C 125.734 245.597 101.773 249.078 81.3397 249.312L 81.2647 246.015" style="stroke:none; fill-rule:evenodd; fill:#000000"/>
    <path d="M 157.539 152.668L 156.449 150.402L 153.871 151.629L 154.965 153.894L 157.539 152.668" style="stroke:none; fill-rule:evenodd; fill:#000000"/>
    <path d="M 146.445 104.453C 153.554 103.98 158.933 97.8317 158.461 90.7187C 157.984 83.6087 151.836 78.2297 144.726 78.7027C 137.617 79.1797 132.234 85.3277 132.711 92.4367C 133.183 99.5467 139.332 104.926 146.445 104.453" style="stroke:none; fill-rule:evenodd; fill:#ffffff"/>
    <path d="M 146.254 101.597C 151.785 101.226 155.969 96.4447 155.597 90.9137C 155.23 85.3867 150.445 81.2027 144.918 81.5697C 139.386 81.9367 135.203 86.7217 135.57 92.2497C 135.941 97.7807 140.722 101.965 146.254 101.597" style="stroke:none; fill-rule:evenodd; fill:#000000"/>
    <path d="M 180.355 142.078L 179.261 139.816L 176.687 141.039L 177.777 143.304L 180.355 142.078" style="stroke:none; fill-rule:evenodd; fill:#000000"/>
    <path d="M 171.73 149.344C 174.742 148.351 176.375 145.109 175.383 142.101L 163.597 106.512C 162.605 103.504 159.363 101.871 156.297 102.168L 144.242 106.539C 141.293 108.226 140.82 110.687 141.812 113.695L 153.597 149.281C 154.59 152.293 157.832 153.926 160.84 152.933L 171.73 149.344" style="stroke:none; fill-rule:evenodd; fill:#000000"/>
    <path d="M 150.777 153.043L 182.949 138.156L 184.781 131.562L 171.898 110.238C 170.191 107.945 167.437 108.668 165.426 109.597L 139.879 121.422C 137.867 122.351 135.851 124.558 136.426 126.734L 144.156 150.219L 150.777 153.043" style="stroke:none; fill-rule:evenodd; fill:#000000"/>
    <path d="M 151 149.457L 180.226 135.894L 181.269 131.695L 170.742 113.89C 169.277 111.91 168.472 111.242 164.969 113.16L 142.265 123.461C 139.457 124.394 138.996 125.988 139.785 128.289L 146.519 147.758L 151 149.457" style="stroke:none; fill-rule:evenodd; fill:#ffffff"/>
    <path d="M 155.683 167.18L 190.566 150.961L 196.746 151.668L 218.234 141.789L 209.84 132.027C 207.801 130.297 205.355 130.629 202.554 131.887L 133.422 163.879C 130.39 165.777 129.062 167.398 128.976 170.168L 130.945 182.18C 130.945 182.18 152.672 171.84 152.789 171.785C 152.906 171.73 155.683 167.18 155.683 167.18" style="stroke:none; fill-rule:evenodd; fill:#000000"/>
    <path d="M 189.418 148.281L 154.367 164.476L 151.004 169.371L 132.676 177.976C 132.676 177.976 131.609 170.922 131.664 171.039C 131.476 168.98 132.551 167.219 136.203 165.414L 204.465 133.793C 206.578 133.07 207.683 133.32 209.41 135.558L 213.785 140.801L 196.308 148.644L 189.418 148.281" style="stroke:none; fill-rule:evenodd; fill:#ffffff"/>
    <path d="M 74.7187 74.7187L 256.773 256.41" style="stroke:none; fill-rule:evenodd; fill:#cccccc"/>
    <path d="M 74.7187 74.7187L 256.773 256.41" style="stroke:#ff0000; stroke-width:14.257; fill:none"/>
    <path d="M 74.8157 256.262L 256.144 75.2027" style="stroke:#ff0000; stroke-width:14.257; fill:none"/>
    <path d="M 43.3587 278.949L 16.3587 278.949" style="stroke:#000000; stroke-width:0.5; fill:none"/>
    <path d="M 52.3587 287.949L 52.3587 314.949" style="stroke:#000000; stroke-width:0.5; fill:none"/>
    <path d="M 43.3587 52.1757L 16.3587 52.1757" style="stroke:#000000; stroke-width:0.5; fill:none"/>
    <path d="M 52.3587 43.1757L 52.3587 16.1757" style="stroke:#000000; stroke-width:0.5; fill:none"/>
    <path d="M 288.133 52.1757L 315.133 52.1757" style="stroke:#000000; stroke-width:0.5; fill:none"/>
    <path d="M 279.133 43.1757L 279.133 16.1757" style="stroke:#000000; stroke-width:0.5; fill:none"/>
    <path d="M 288.133 278.949L 315.133 278.949" style="stroke:#000000; stroke-width:0.5; fill:none"/>
    <path d="M 279.133 287.949L 279.133 314.949" style="stroke:#000000; stroke-width:0.5; fill:none"/>
  </g>
</svg>
